src/assets/icons/image_attachement.svg

<svg width="18" height="18" viewBox="0 0 18 18" fill="none" xmlns="http://www.w3.org/2000/svg">
<path d="M4 0C1.791 0 0 1.791 0 4V13V14C0 16.209 1.791 18 4 18H14C16.209 18 18 16.209 18 14V13V4C18 1.791 16.209 0 14 0H4ZM4 2H14C15.105 2 16 2.895 16 4L16.004 10.196C15.226 9.47398 14.433 9.022 13.562 9C13.531 8.999 13.532 9 13.5 9C12.363 9 11.099 9.87399 10.25 10.969C10.033 10.479 9.81401 9.99501 9.56201 9.53101C8.38201 7.35201 7.093 6.003 5.5 6C4.146 5.997 2.984 7.104 1.992 8.62L2 4C2 2.895 2.895 2 4 2ZM13 4C12.448 4 12 4.448 12 5C12 5.552 12.448 6 13 6C13.552 6 14 5.552 14 5C14 4.448 13.552 4 13 4ZM5.5 8C6.082 8.001 6.96601 8.90699 7.81201 10.469C8.14801 11.087 8.44899 11.768 8.71899 12.438C8.88099 12.838 9.00601 13.144 9.06201 13.312C9.33501 14.129 10.443 14.245 10.875 13.5C10.918 13.426 10.996 13.284 11.125 13.094C11.341 12.774 11.587 12.45 11.844 12.156C12.486 11.42 13.105 11 13.5 11C13.899 11.01 14.515 11.429 15.156 12.156C15.416 12.451 15.656 12.774 15.875 13.094C15.944 13.194 15.954 13.241 16 13.312V14C16 15.105 15.105 16 14 16H4C2.895 16 2 15.105 2 14V13.156C2.063 12.978 2.14701 12.767 2.28101 12.438C2.55401 11.768 2.84999 11.088 3.18799 10.469C4.04099 8.90399 4.919 7.999 5.5 8Z" fill="black"/>
</svg>

<svg xmlns="http://www.w3.org/2000/svg" width="18" height="18" fill="none"><path fill="#000" d="M4 0a4 4 0 0 0-4 4v10a4 4 0 0 0 4 4h10a4 4 0 0 0 4-4V4a4 4 0 0 0-4-4zm0 2h10a2 2 0 0 1 2 2l.004 6.196c-.778-.722-1.571-1.174-2.442-1.196H13.5c-1.137 0-2.401.874-3.25 1.969-.217-.49-.436-.974-.688-1.438C8.382 7.352 7.093 6.003 5.5 6c-1.354-.003-2.516 1.104-3.508 2.62L2 4a2 2 0 0 1 2-2m9 2a1 1 0 1 0 0 2 1 1 0 0 0 0-2M5.5 8c.582.001 1.466.907 2.312 2.469.336.618.637 1.299.907 1.969.162.4.287.706.343.874.273.817 1.381.933 1.813.188.043-.074.121-.216.25-.406.216-.32.462-.644.719-.938C12.486 11.42 13.105 11 13.5 11c.399.01 1.015.429 1.656 1.156.26.295.5.618.719.938.069.1.079.147.125.218V14a2 2 0 0 1-2 2H4a2 2 0 0 1-2-2v-.844c.063-.178.147-.389.281-.718.273-.67.569-1.35.907-1.969C4.041 8.904 4.919 7.999 5.5 8"/></svg>
